src/assets/icons/river.svg

<?xml version="1.0" encoding="utf-8"?>
<!-- Generator: Adobe Illustrator 25.3.1, SVG Export Plug-In . SVG Version: 6.00 Build 0)  -->
<svg version="1.1" id="Layer_1" xmlns="http://www.w3.org/2000/svg" xmlns:xlink="http://www.w3.org/1999/xlink" x="0px" y="0px"
	 viewBox="0 0 100 100" style="enable-background:new 0 0 100 100;" xml:space="preserve">
<style type="text/css">
	.st0{fill:#FCD09A;}
	.st1{fill:#3B3F3D;}
	.st2{fill:#FFFFFF;}
</style>
<polygon class="st0" points="85.8,83.9 85.8,83.9 85.9,83.9 "/>
<g>
	<ellipse class="st1" cx="50" cy="50.1" rx="50" ry="50.1"/>
	<path class="st0" d="M57.1,76.7l12,0.9l3.8-2.7l-0.5-2.3c-1.6-1.2-3.2-2.3-5-3.4l-5.7-1.5v1.6c0,0.4-0.2,0.8-0.5,1.1l-4.1,4.6
		C57.1,75.1,57.1,76.7,57.1,76.7z"/>
	<path class="st0" d="M57.1,80.9l2.6,1.8c0.3,0.2,0.6,0.5,0.7,0.9l2.1,6.8c2.8,0,5.5,0,8.3,0l4.9-3.5V82l-6.4-1.2l0,0l-12.2-1V80.9z
		"/>
	<path class="st0" d="M79.3,79.1c-1-1.1-2.1-2.2-3.2-3.3c-0.1,0.4-0.3,0.8-0.6,1.1l-2.1,1.5l4,0.7C77.4,79.1,79.3,79.1,79.3,79.1z"
		/>
	<path class="st0" d="M82,82.3h-3.3v5.4c0,0.6-0.3,1.1-0.8,1.3L72,93.2c-0.3,0.2-0.6,0.3-0.9,0.3h-3.4v3.4c2.3-0.9,4.5-1.9,6.7-3.1
		c0.2-0.7,0.8-1.2,1.5-1.2h0.5c3-1.9,5.8-4,8.3-6.5C83.9,84.8,83,83.5,82,82.3z"/>
	<path class="st0" d="M49.2,100.2c0.3,0,0.6,0,0.8,0c5.1,0,10.1-0.8,14.7-2.2v-4.5c-3.8,0-7.6,0-11.4,0L49.2,100.2z"/>
	<path class="st0" d="M31.2,96.5c3.5,1.4,7.1,2.4,10.9,3.1l-6.3-5.7H32c-0.3,0.8-0.6,1.5-0.9,2.2L31.2,96.5L31.2,96.5z"/>
	<path class="st0" d="M41.4,83.6l-5.4-1.8c-0.3-0.1-0.6-0.3-0.7-0.5l0,0l-5.5-7.3l-3.5,0.6c6.3,5.5,7.4,11.3,6.6,16.3h3.2l9.1-5.3
		l2.2-3.5l-4.6,1.6C42.2,83.7,41.7,83.7,41.4,83.6z"/>
	<path class="st0" d="M54,81.7V80l-2.2,0.4l-3.6,5.9l4.9,4.2h6.1L57.5,85l-2.9-2C54.2,82.7,54,82.2,54,81.7z"/>
	<path class="st0" d="M50.8,72.3l-3.5-2.5l-3.7,3.6v6.6l6.7-2.4c0.1,0,0.2-0.1,0.3-0.1l3.4-0.6v-2.3c0-0.4,0.2-0.8,0.5-1.1l1.4-1.6
		L52,72.6C51.6,72.7,51.1,72.6,50.8,72.3z"/>
	<polygon class="st0" points="39,92.6 45.8,98.7 50.4,92.3 46,88.5 	"/>
	<path class="st0" d="M10,56.2c0,1,0.2,2,0.6,3.1h2.8L10,56.2z"/>
	<path class="st0" d="M21.6,52l-4.4-3.8l-5.7,3.3c-0.3,0.4-0.5,0.8-0.7,1.3l6.3,5.7L21.6,52z"/>
	<path class="st0" d="M46.8,46.6v-4.9l-6.4-1.2l-12.2-1v1.1l2.6,1.8c0.3,0.2,0.6,0.5,0.7,0.9l2.1,6.8c2.8,0,5.5,0,8.3,0L46.8,46.6z"
		/>
	<path class="st0" d="M32.1,36.3c-0.1,0.1-0.3,0.2-0.4,0.3l8.6,0.7l3.8-2.7l-1-4.5l-6.2-1.6C37.3,30.7,36,33.2,32.1,36.3z"/>
	<path class="st0" d="M46.7,36.6l-2.1,1.5l4,0.7h10.2l0.4-4c-4.2-1.3-8.4-2.5-12.6-3.7l0.8,4C47.4,35.6,47.2,36.3,46.7,36.6z"/>
	<path class="st0" d="M20.2,59.4H36v-6.1c-3.8,0-7.6,0-11.4,0L20.2,59.4z"/>
	<path class="st0" d="M19.4,46l4.9,4.2h6.1l-1.7-5.4l-2.9-2c-0.4-0.3-0.7-0.8-0.7-1.3v-0.4c-1.5,0.9-3,1.8-4.4,2.7L19.4,46z"/>
	<path class="st0" d="M48.4,56.5L48,59.3h2.8C49.8,58.4,49,57.4,48.4,56.5z"/>
	<path class="st0" d="M34.6,62.5h-9.7l0,0H12.3c2,2.8,5.5,6,10.8,9.6c0.2,0.2,0.5,0.3,0.7,0.5c0.2-0.5,0.6-0.9,1.2-1l4.5-0.7l4.7-8
		C34.4,62.7,34.5,62.6,34.6,62.5z"/>
	<path class="st0" d="M40.7,62.5h-4.3c0.6,0.4,0.9,1.2,0.4,2l-4.6,7.7l5.2,6.8l3,1v-7.3c0-0.4,0.2-0.8,0.5-1.1l3.8-3.7l-4-2.9
		C39.6,64.3,39.9,63.1,40.7,62.5z"/>
	<path class="st0" d="M42.4,62.5C42.5,62.5,42.5,62.5,42.4,62.5c3.2,2.3,6.4,4.6,9.6,7l6.4-1.2v-3.6c-1.3-0.7-2.5-1.5-3.6-2.2
		C54.8,62.5,42.4,62.5,42.4,62.5z"/>
	<path class="st0" d="M56.9,41.9H50v5.4c0,0.1,0,0.1,0,0.2c1.8-1.9,4.3-3.6,6.4-5.2C56.5,42.2,56.7,42.1,56.9,41.9z"/>
	<path class="st0" d="M45.7,53.8c0-0.8,2.2-3.6,2.9-4.6L43.4,53c-0.3,0.2-0.6,0.3-0.9,0.3h-3.4l0,0v6.1H45L45.7,53.8z"/>
	<path class="st0" d="M39.3,15.6c-1.6-0.7-3.4-1.3-5.2-1.9c-0.9-0.3-1.7-0.6-2.4-0.8l-1.9,1.5l7.8,4.8L39.3,15.6z"/>
	<path class="st0" d="M49.6,21.1l-3.5,0.7l0,0l-12.4,2.3c0.3,0.3,0.6,0.5,0.9,0.8c7.2,1.8,13.4,3.5,20.7,5.6l1.6-2.2
		C55.4,25.8,53,23.4,49.6,21.1z"/>
	<path class="st0" d="M26.9,16.2L22.7,17c2.5,1.6,5.2,3.1,7.5,4.5l0.4-0.1c0.3-0.1,0.5-0.2,0.8-0.2l2.8-0.5L26.9,16.2z"/>
	<path class="st0" d="M21.2,14.1l5.4-1l1.8-1.6c-2.7-1-4.8-2-6.5-2.9c-1.1,0.8-2.2,1.6-3.3,2.4L21.2,14.1z"/>
	<path class="st0" d="M42.2,16.8l-1.3,2.7l4.8-0.9C44.6,18,43.4,17.4,42.2,16.8z"/>
	<path class="st2" d="M65.9,53.8c0.9-1.8,1.6-3.7,2.1-5.7c0.6-2.4,0.9-4.8,0.9-7.2v-8.1c0-0.2-0.1-0.3-0.2-0.5L65.1,28l-2.5-3
		l0.4-1.7l4.8,4.2c0.3,0.3,0.7,0.2,1-0.1c0.1-0.1,0.2-0.3,0.2-0.5V16.7c0-0.3,0.2-0.6,0.5-0.7l2.8-1.1c0.4-0.1,0.8,0,0.9,0.4
		c0,0.1,0,0.2,0,0.2v21c0,0.4,0.3,0.7,0.7,0.7c0.2,0,0.4-0.1,0.5-0.2l1.3-1.3c0.3-0.3,0.7-0.3,1,0c0.1,0.1,0.2,0.3,0.2,0.5
		c0,0.2-0.1,0.4-0.2,0.5l-3.3,3.5c-0.1,0.1-0.2,0.3-0.2,0.5v0.3c0,4.5,1.1,8.9,3.1,12.9C76.3,53.8,65.9,53.8,65.9,53.8z"/>
	<path class="st2" d="M81.1,63.7c2-2.8,3.1-5.8,3.1-8.9v-0.2c0-0.1-0.1-0.3-0.2-0.3L80.7,52c-0.1-0.1-0.2-0.2-0.2-0.3
		s0.1-0.3,0.2-0.3c0.3-0.2,0.7-0.2,1,0l1.3,0.9c0.1,0.1,0.3,0.1,0.5,0.1c0.4,0,0.7-0.2,0.7-0.5V37.3c0-0.1,0-0.1,0-0.2
		c0.1-0.3,0.5-0.4,0.9-0.3l2.8,0.7c0.3,0.1,0.5,0.3,0.5,0.5v7.1c0,0.1,0.1,0.2,0.2,0.3c0.3,0.2,0.7,0.2,1,0l4.8-2.9l0.4,1.2
		l-2.5,2.1l-3.6,3c-0.1,0.1-0.2,0.2-0.2,0.3v5.6c0,1.7,0.3,3.4,0.9,5c0.5,1.4,1.2,2.7,2.1,3.9L81.1,63.7L81.1,63.7z"/>
</g>
</svg>

<?xml version="1.0" encoding="UTF-8"?>
<svg width="101px" height="101px" viewBox="0 0 101 101" version="1.1" xmlns="http://www.w3.org/2000/svg" xmlns:xlink="http://www.w3.org/1999/xlink">
    <title>river</title>
    <g id="Page-1" stroke="none" stroke-width="1" fill="none" fill-rule="evenodd">
        <g id="river" transform="translate(0.200000, 0.200000)" fill-rule="nonzero">
            <polygon id="Path" fill="#FCD09A" points="85.8 83.9 85.8 83.9 85.9 83.9"></polygon>
            <g id="Group">
                <path d="M57.1,76.7 L69.1,77.6 L72.9,74.9 L72.4,72.6 C70.8,71.4 69.2,70.3 67.4,69.2 L61.7,67.7 L61.7,69.3 C61.7,69.7 61.5,70.1 61.2,70.4 L57.1,75 C57.1,75.1 57.1,76.7 57.1,76.7 Z" id="Path" fill="#FCD09A"></path>
                <path d="M57.1,80.9 L59.7,82.7 C60,82.9 60.3,83.2 60.4,83.6 L62.5,90.4 C65.3,90.4 68,90.4 70.8,90.4 L75.7,86.9 L75.7,82 L69.3,80.8 L69.3,80.8 L57.1,79.8 L57.1,80.9 L57.1,80.9 Z" id="Path" fill="#FCD09A"></path>
                <path d="M79.3,79.1 C78.3,78 77.2,76.9 76.1,75.8 C76,76.2 75.8,76.6 75.5,76.9 L73.4,78.4 L77.4,79.1 C77.4,79.1 79.3,79.1 79.3,79.1 Z" id="Path" fill="#FCD09A"></path>
                <path d="M82,82.3 L78.7,82.3 L78.7,87.7 C78.7,88.3 78.4,88.8 77.9,89 L72,93.2 C71.7,93.4 71.4,93.5 71.1,93.5 L67.7,93.5 L67.7,96.9 C70,96 72.2,95 74.4,93.8 C74.6,93.1 75.2,92.6 75.9,92.6 L76.4,92.6 C79.4,90.7 82.2,88.6 84.7,86.1 C83.9,84.8 83,83.5 82,82.3 Z" id="Path" fill="#FCD09A"></path>
                <path d="M49.2,100.2 C49.5,100.2 49.8,100.2 50,100.2 C55.1,100.2 60.1,99.4 64.7,98 L64.7,93.5 C60.9,93.5 57.1,93.5 53.3,93.5 L49.2,100.2 Z" id="Path" fill="#FCD09A"></path>
                <path d="M31.2,96.5 C34.7,97.9 38.3,98.9 42.1,99.6 L35.8,93.9 L32,93.9 C31.7,94.7 31.4,95.4 31.1,96.1 L31.2,96.5 L31.2,96.5 Z" id="Path" fill="#FCD09A"></path>
                <path d="M41.4,83.6 L36,81.8 C35.7,81.7 35.4,81.5 35.3,81.3 L35.3,81.3 L29.8,74 L26.3,74.6 C32.6,80.1 33.7,85.9 32.9,90.9 L36.1,90.9 L45.2,85.6 L47.4,82.1 L42.8,83.7 C42.2,83.7 41.7,83.7 41.4,83.6 Z" id="Path" fill="#FCD09A"></path>
                <path d="M54,81.7 L54,80 L51.8,80.4 L48.2,86.3 L53.1,90.5 L59.2,90.5 L57.5,85 L54.6,83 C54.2,82.7 54,82.2 54,81.7 Z" id="Path" fill="#FCD09A"></path>
                <path d="M50.8,72.3 L47.3,69.8 L43.6,73.4 L43.6,80 L50.3,77.6 C50.4,77.6 50.5,77.5 50.6,77.5 L54,76.9 L54,74.6 C54,74.2 54.2,73.8 54.5,73.5 L55.9,71.9 L52,72.6 C51.6,72.7 51.1,72.6 50.8,72.3 Z" id="Path" fill="#FCD09A"></path>
                <polygon id="Path" fill="#FCD09A" points="39 92.6 45.8 98.7 50.4 92.3 46 88.5"></polygon>
                <path d="M10,56.2 C10,57.2 10.2,58.2 10.6,59.3 L13.4,59.3 L10,56.2 Z" id="Path" fill="#FCD09A"></path>
                <path d="M21.6,52 L17.2,48.2 L11.5,51.5 C11.2,51.9 11,52.3 10.8,52.8 L17.1,58.5 L21.6,52 Z" id="Path" fill="#FCD09A"></path>
                <path d="M46.8,46.6 L46.8,41.7 L40.4,40.5 L28.2,39.5 L28.2,40.6 L30.8,42.4 C31.1,42.6 31.4,42.9 31.5,43.3 L33.6,50.1 C36.4,50.1 39.1,50.1 41.9,50.1 L46.8,46.6 Z" id="Path" fill="#FCD09A"></path>
                <path d="M32.1,36.3 C32,36.4 31.8,36.5 31.7,36.6 L40.3,37.3 L44.1,34.6 L43.1,30.1 L36.9,28.5 C37.3,30.7 36,33.2 32.1,36.3 Z" id="Path" fill="#FCD09A"></path>
                <path d="M46.7,36.6 L44.6,38.1 L48.6,38.8 L58.8,38.8 L59.2,34.8 C55,33.5 50.8,32.3 46.6,31.1 L47.4,35.1 C47.4,35.6 47.2,36.3 46.7,36.6 Z" id="Path" fill="#FCD09A"></path>
                <path d="M20.2,59.4 L36,59.4 L36,53.3 C32.2,53.3 28.4,53.3 24.6,53.3 L20.2,59.4 Z" id="Path" fill="#FCD09A"></path>
                <path d="M19.4,46 L24.3,50.2 L30.4,50.2 L28.7,44.8 L25.8,42.8 C25.4,42.5 25.1,42 25.1,41.5 L25.1,41.1 C23.6,42 22.1,42.9 20.7,43.8 L19.4,46 Z" id="Path" fill="#FCD09A"></path>
                <path d="M48.4,56.5 L48,59.3 L50.8,59.3 C49.8,58.4 49,57.4 48.4,56.5 Z" id="Path" fill="#FCD09A"></path>
                <path d="M34.6,62.5 L24.9,62.5 L24.9,62.5 L12.3,62.5 C14.3,65.3 17.8,68.5 23.1,72.1 C23.3,72.3 23.6,72.4 23.8,72.6 C24,72.1 24.4,71.7 25,71.6 L29.5,70.9 L34.2,62.9 C34.4,62.7 34.5,62.6 34.6,62.5 Z" id="Path" fill="#FCD09A"></path>
                <path d="M40.7,62.5 L36.4,62.5 C37,62.9 37.3,63.7 36.8,64.5 L32.2,72.2 L37.4,79 L40.4,80 L40.4,72.7 C40.4,72.3 40.6,71.9 40.9,71.6 L44.7,67.9 L40.7,65 C39.6,64.3 39.9,63.1 40.7,62.5 Z" id="Path" fill="#FCD09A"></path>
                <path d="M42.4,62.5 C42.5,62.5 42.5,62.5 42.4,62.5 C45.6,64.8 48.8,67.1 52,69.5 L58.4,68.3 L58.4,64.7 C57.1,64 55.9,63.2 54.8,62.5 C54.8,62.5 42.4,62.5 42.4,62.5 Z" id="Path" fill="#FCD09A"></path>
                <path d="M56.9,41.9 L50,41.9 L50,47.3 C50,47.4 50,47.4 50,47.5 C51.8,45.6 54.3,43.9 56.4,42.3 C56.5,42.2 56.7,42.1 56.9,41.9 Z" id="Path" fill="#FCD09A"></path>
                <path d="M45.7,53.8 C45.7,53 47.9,50.2 48.6,49.2 L43.4,53 C43.1,53.2 42.8,53.3 42.5,53.3 L39.1,53.3 L39.1,53.3 L39.1,59.4 L45,59.4 L45.7,53.8 Z" id="Path" fill="#FCD09A"></path>
                <path d="M39.3,15.6 C37.7,14.9 35.9,14.3 34.1,13.7 C33.2,13.4 32.4,13.1 31.7,12.9 L29.8,14.4 L37.6,19.2 L39.3,15.6 Z" id="Path" fill="#FCD09A"></path>
                <path d="M49.6,21.1 L46.1,21.8 L46.1,21.8 L33.7,24.1 C34,24.4 34.3,24.6 34.6,24.9 C41.8,26.7 48,28.4 55.3,30.5 L56.9,28.3 C55.4,25.8 53,23.4 49.6,21.1 Z" id="Path" fill="#FCD09A"></path>
                <path d="M26.9,16.2 L22.7,17 C25.2,18.6 27.9,20.1 30.2,21.5 L30.6,21.4 C30.9,21.3 31.1,21.2 31.4,21.2 L34.2,20.7 L26.9,16.2 Z" id="Path" fill="#FCD09A"></path>
                <path d="M21.2,14.1 L26.6,13.1 L28.4,11.5 C25.7,10.5 23.6,9.5 21.9,8.6 C20.8,9.4 19.7,10.2 18.6,11 L21.2,14.1 Z" id="Path" fill="#FCD09A"></path>
                <path d="M42.2,16.8 L40.9,19.5 L45.7,18.6 C44.6,18 43.4,17.4 42.2,16.8 Z" id="Path" fill="#FCD09A"></path>
                <path d="M65.9,53.8 C66.8,52 67.5,50.1 68,48.1 C68.6,45.7 68.9,43.3 68.9,40.9 L68.9,32.8 C68.9,32.6 68.8,32.5 68.7,32.3 L65.1,28 L62.6,25 L63,23.3 L67.8,27.5 C68.1,27.8 68.5,27.7 68.8,27.4 C68.9,27.3 69,27.1 69,26.9 L69,16.7 C69,16.4 69.2,16.1 69.5,16 L72.3,14.9 C72.7,14.8 73.1,14.9 73.2,15.3 C73.2,15.4 73.2,15.5 73.2,15.5 L73.2,36.5 C73.2,36.9 73.5,37.2 73.9,37.2 C74.1,37.2 74.3,37.1 74.4,37 L75.7,35.7 C76,35.4 76.4,35.4 76.7,35.7 C76.8,35.8 76.9,36 76.9,36.2 C76.9,36.4 76.8,36.6 76.7,36.7 L73.4,40.2 C73.3,40.3 73.2,40.5 73.2,40.7 L73.2,41 C73.2,45.5 74.3,49.9 76.3,53.9 C76.3,53.8 65.9,53.8 65.9,53.8 Z" id="Path" fill="#FFFFFF"></path>
                <path d="M81.1,63.7 C83.1,60.9 84.2,57.9 84.2,54.8 L84.2,54.6 C84.2,54.5 84.1,54.3 84,54.3 L80.7,52 C80.6,51.9 80.5,51.8 80.5,51.7 C80.5,51.6 80.6,51.4 80.7,51.4 C81,51.2 81.4,51.2 81.7,51.4 L83,52.3 C83.1,52.4 83.3,52.4 83.5,52.4 C83.9,52.4 84.2,52.2 84.2,51.9 L84.2,37.3 C84.2,37.2 84.2,37.2 84.2,37.1 C84.3,36.8 84.7,36.7 85.1,36.8 L87.9,37.5 C88.2,37.6 88.4,37.8 88.4,38 L88.4,45.1 C88.4,45.2 88.5,45.3 88.6,45.4 C88.9,45.6 89.3,45.6 89.6,45.4 L94.4,42.5 L94.8,43.7 L92.3,45.8 L88.7,48.8 C88.6,48.9 88.5,49 88.5,49.1 L88.5,54.7 C88.5,56.4 88.8,58.1 89.4,59.7 C89.9,61.1 90.6,62.4 91.5,63.6 L81.1,63.7 L81.1,63.7 Z" id="Path" fill="#FFFFFF"></path>
            </g>
        </g>
    </g>
</svg>
